X: 20902
M: 2/4
L: 1/16
K: F
V: 1 name="2"
c4 cfaf | c4 cfaf | (fe)(dc) (c2de) | fefg a2GA |\
ef |\
gc=Bc gcBc | bcac gc=Bc | facf bagf | egfa g2ef |\
gc=Bc gcBc | bcac gc=Bc | Acfa Gceg | fcag "^D.C."f2 |]


